svg/multimedia.svg

<svg xmlns="http://www.w3.org/2000/svg" viewBox="0 0 24 24"><path d="M9 13V5c0-1.1.9-2 2-2h9c1.1 0 2 .9 2 2v6h-3.43l-1.28-1.74a.14.14 0 0 0-.24 0L15.06 12c-.06.06-.18.07-.24 0l-1.43-1.75a.152.152 0 0 0-.23 0l-2.11 2.66c-.08.09-.01.24.11.24h6.34V15H11c-1.11 0-2-.89-2-2m-3 9v-1H4v1H2V2h2v1h2V2h2.39C7.54 2.74 7 3.8 7 5v8c0 2.21 1.79 4 4 4h4.7c-1.03.83-1.7 2.08-1.7 3.5 0 .53.11 1.03.28 1.5zM4 7h2V5H4zm0 4h2V9H4zm0 4h2v-2H4zm2 4v-2H4v2zm17-6v2h-2v5.5a2.5 2.5 0 0 1-5 0 2.5 2.5 0 0 1 3.5-2.29V13z"/></svg>

<svg xmlns="http://www.w3.org/2000/svg" id="mdi-multimedia" viewBox="0 0 24 24"><path d="M9 13V5C9 3.9 9.9 3 11 3H20C21.1 3 22 3.9 22 5V11H18.57L17.29 9.26C17.23 9.17 17.11 9.17 17.05 9.26L15.06 12C15 12.06 14.88 12.07 14.82 12L13.39 10.25C13.33 10.18 13.22 10.18 13.16 10.25L11.05 12.91C10.97 13 11.04 13.15 11.16 13.15H17.5V15H11C9.89 15 9 14.11 9 13M6 22V21H4V22H2V2H4V3H6V2H8.39C7.54 2.74 7 3.8 7 5V13C7 15.21 8.79 17 11 17H15.7C14.67 17.83 14 19.08 14 20.5C14 21.03 14.11 21.53 14.28 22H6M4 7H6V5H4V7M4 11H6V9H4V11M4 15H6V13H4V15M6 19V17H4V19H6M23 13V15H21V20.5C21 21.88 19.88 23 18.5 23S16 21.88 16 20.5 17.12 18 18.5 18C18.86 18 19.19 18.07 19.5 18.21V13H23Z" /></svg>
